src/assets/media/svg/sprite/floppy.svg

<svg width="24" height="24" viewBox="0 0 24 24"  xmlns="http://www.w3.org/2000/svg">
<path d="M13.125 10.875C13.1169 10.5791 12.9962 10.2974 12.7875 10.0875C12.5737 9.87862 12.2856 9.76326 11.9868 9.76678C11.6879 9.7703 11.4026 9.8924 11.1938 10.1062C10.9849 10.3201 10.8695 10.6081 10.8731 10.907C10.8766 11.2059 10.9987 11.4911 11.2125 11.7C11.4228 11.9061 11.7055 12.0216 12 12.0216C12.2945 12.0216 12.5772 11.9061 12.7875 11.7C12.8953 11.5914 12.9806 11.4627 13.0385 11.3211C13.0964 11.1795 13.1258 11.0279 13.125 10.875Z" />
<path d="M0.75 0.75V20.25L3.75 23.25H23.25V0.75H0.75ZM19.5 21.75H4.5V17.25H19.5V21.75ZM7.875 10.875C7.875 10.0592 8.11693 9.26163 8.57019 8.58327C9.02345 7.90492 9.66769 7.37621 10.4214 7.064C11.1752 6.75179 12.0046 6.6701 12.8047 6.82926C13.6049 6.98843 14.3399 7.38129 14.9168 7.95818C15.4937 8.53508 15.8866 9.27008 16.0457 10.0703C16.2049 10.8704 16.1232 11.6998 15.811 12.4536C15.4988 13.2073 14.9701 13.8516 14.2917 14.3048C13.6134 14.7581 12.8158 15 12 15C10.906 15 9.85677 14.5654 9.08318 13.7918C8.3096 13.0182 7.875 11.969 7.875 10.875ZM19.5 4.5H4.5V2.25H19.5V4.5Z" />
</svg>

<svg xmlns="http://www.w3.org/2000/svg" width="24" height="24"><path d="M13.125 10.875a1.16 1.16 0 0 0-.338-.787 1.127 1.127 0 1 0 0 1.612 1.16 1.16 0 0 0 .338-.825"/><path d="M.75.75v19.5l3 3h19.5V.75zm18.75 21h-15v-4.5h15zM7.875 10.875a4.125 4.125 0 1 1 8.25 0 4.125 4.125 0 0 1-8.25 0M19.5 4.5h-15V2.25h15z"/></svg>
